X: 234
T:Pet of the Pipers
% Nottingham Music Database
S:Kevin Briggs, via EF
Y:AB
M:6/8
K:A
P:A
E|"A"A2A cBA|"A"ecA aec|"A"A2A cBA|"D"GFE "E7"dcB|
"A"A2A cBA|"A"ecA aec|"D"fga "A"ecA|"E7"dBG "A"A2:|
P:B
e|"A"aga "D"fga|"B7/f+"fba "E7"gfe|"A"aga "D"fga|"E7"bag "A"a2(3e/2f/2g/2|
"A"agf edc|"D"fed "A"cBA|"D"fga "A"ecA|"E7"dBG "A"A2:|


